_inc/systems/logos/quake.svg

<?xml version="1.0" encoding="UTF-8" standalone="no"?>
<svg
   version="1.1"
   viewBox="0 0 268 68"
   id="svg12"
   sodipodi:docname="quake.svg"
   inkscape:version="1.2.2 (732a01da63, 2022-12-09)"
   xmlns:inkscape="http://www.inkscape.org/namespaces/inkscape"
   xmlns:sodipodi="http://sodipodi.sourceforge.net/DTD/sodipodi-0.dtd"
   xmlns="http://www.w3.org/2000/svg"
   xmlns:svg="http://www.w3.org/2000/svg">
  <defs
     id="defs16" />
  <sodipodi:namedview
     id="namedview14"
     pagecolor="#ffffff"
     bordercolor="#666666"
     borderopacity="1.0"
     inkscape:pageshadow="2"
     inkscape:pageopacity="0.0"
     inkscape:pagecheckerboard="0"
     showgrid="false"
     inkscape:zoom="6.3507463"
     inkscape:cx="122.34783"
     inkscape:cy="34.011751"
     inkscape:window-width="1920"
     inkscape:window-height="1009"
     inkscape:window-x="-8"
     inkscape:window-y="-8"
     inkscape:window-maximized="1"
     inkscape:current-layer="svg12"
     inkscape:showpageshadow="0"
     inkscape:deskcolor="#d1d1d1" />
  <path
     d="M 44.878 14.763 C 46.084 18.035 46.689 21.384 46.689 24.813 C 46.689 27.812 46.221 30.559 45.287 33.051 C 43.727 37.257 41.254 40.763 37.866 43.567 C 34.36 46.449 30.424 48.124 26.061 48.591 L 26.061 54.609 C 26.061 54.844 25.886 55.777 25.535 57.414 C 24.834 60.647 24.192 64.329 23.608 68.458 C 21.659 59.809 20.588 55.213 20.393 54.668 L 20.393 48.532 C 16.148 48.104 12.309 46.468 8.882 43.626 C 2.959 38.72 0 32.447 0 24.813 C 0 21.619 0.526 18.503 1.578 15.465 C 2.551 12.583 4.032 9.994 6.019 7.695 C 8.161 5.164 10.577 3.41 13.264 2.436 C 10.421 4.11 8.064 6.234 6.193 8.804 C 3.662 12.309 2.396 16.304 2.396 20.782 C 2.396 22.417 2.551 24.034 2.864 25.631 C 3.526 28.981 5.143 32.096 7.715 34.977 C 10.363 37.978 13.303 39.867 16.537 40.645 C 18.213 41.229 19.497 41.544 20.394 41.581 L 20.394 35.502 C 20.394 34.88 20.374 34.177 20.336 33.399 C 20.064 32.114 19.324 31.374 18.115 31.179 C 18.039 31.101 17.939 31.061 17.824 31.061 L 28.4 31.061 C 28.672 31.061 28.789 31.101 28.75 31.179 C 27.309 31.413 26.471 32.153 26.238 33.399 C 26.119 34.023 26.062 34.744 26.062 35.561 L 26.062 41.581 C 28.05 41.151 29.412 40.841 30.153 40.645 C 33.309 39.828 36.191 38.016 38.801 35.211 C 42.464 31.237 44.293 26.428 44.293 20.78 C 44.293 16.923 43.318 13.388 41.371 10.175 C 39.423 6.962 36.755 4.381 33.366 2.432 C 38.703 4.462 42.54 8.572 44.878 14.763 Z"
     style="fill:#ffffff;fill-opacity:1"
     id="path2" />
  <path
     d="M 61.644 6.851 C 61.293 4.127 60.146 2.494 58.199 1.948 L 72.397 1.948 C 69.513 2.922 68.228 4.595 68.54 6.968 L 68.54 37.201 C 68.54 39.342 68.812 41.19 69.359 42.746 C 71.539 47.105 74.753 49.381 79 49.576 C 73.663 49.42 69.514 47.806 66.553 44.732 C 63.28 41.346 61.645 37.573 61.645 33.409 L 61.644 6.851 L 61.644 6.851 Z M 100.649 6.81 C 100.995 4.077 102.214 2.457 104.301 1.947 L 89.984 1.947 C 92.817 2.807 94.077 4.427 93.766 6.81 L 93.766 37.859 C 93.766 39.93 93.471 41.552 92.885 42.722 C 90.655 47.137 87.468 49.421 83.322 49.576 C 86.561 49.498 89.331 48.873 91.633 47.703 C 92.843 47.079 94.229 46.083 95.79 44.715 C 99.028 41.865 100.648 38.115 100.648 33.466 L 100.649 6.81 L 100.649 6.81 Z"
     style="fill:#ffffff;fill-opacity:1"
     id="path4" />
  <path
     d="M 146.398 45.205 L 144.061 39.478 C 142.735 36.206 140.963 34.219 138.742 33.518 C 137.963 33.442 136.912 33.363 135.588 33.285 C 135.237 33.246 135.022 33.226 134.944 33.226 L 135.935 32.934 C 137.955 32.349 138.966 31.376 138.966 30.011 C 138.966 29.583 138.809 28.999 138.5 28.258 C 136.943 24.557 135.797 21.77 135.058 19.901 C 133.619 16.552 132.532 14.662 131.792 14.234 C 131.208 13.923 130.257 15.092 128.935 17.739 C 127.534 20.584 126.641 22.493 126.253 23.467 L 124.271 28.55 C 123.999 29.251 123.862 29.855 123.862 30.362 C 123.862 32.155 125.102 33.11 127.581 33.227 C 124.309 33.227 122.049 34.063 120.805 35.737 C 119.478 38 118.368 40.666 117.473 43.744 L 117.122 45.789 C 117.357 47.268 118.233 48.146 119.753 48.418 L 110.403 48.418 C 112.117 47.638 114.201 45.027 116.656 40.584 C 117.981 38.245 119.596 34.99 121.505 30.819 C 124.349 24.583 126.025 20.861 126.531 19.651 C 128.479 15.131 129.764 12.128 130.387 10.647 L 133.835 1.643 L 142.075 21.134 L 142.016 21.134 C 142.951 23.12 143.535 24.366 143.77 24.873 C 145.835 29.197 148.463 34.785 151.659 41.642 C 153.255 45.108 155.125 47.367 157.268 48.418 L 143.535 48.418 C 145.678 48.302 146.632 47.23 146.398 45.205 Z"
     style="fill:#ffffff;fill-opacity:1"
     id="path6" />
  <path
     d="M 178.698 43.685 C 178.698 46.258 179.796 47.777 181.983 48.244 L 168.894 48.244 C 170.771 47.776 171.847 46.258 172.123 43.685 L 172.123 6.687 C 172.123 4.036 171.066 2.478 168.954 2.011 L 182.042 2.011 C 180.44 2.362 179.325 3.86 178.698 6.51 L 178.698 19.545 C 178.698 22.041 180.343 23.812 183.633 24.865 C 180.343 25.565 178.698 27.651 178.698 31.119 L 178.698 43.685 Z M 197.408 22.666 C 203.018 15.422 208.802 7.866 214.764 0 L 188.002 24.986 L 188.059 24.986 L 188.002 25.045 L 188.178 25.045 C 192.422 26.643 196.143 28.552 199.338 30.773 C 206.934 36.075 211.025 42.503 211.609 50.063 C 211.726 48.935 211.785 47.824 211.785 46.734 C 211.785 39.373 209.72 33.337 205.59 28.624 C 203.213 25.899 200.486 23.911 197.408 22.666 Z"
     style="fill:#ffffff;fill-opacity:1"
     id="path8" />
  <path
     d="M 238.966 26.668 C 237.875 27.528 237.33 28.716 237.33 30.235 L 237.33 34.271 C 237.33 35.441 237.661 37.838 238.325 41.463 C 238.827 42.592 239.509 43.665 240.367 44.678 C 242.273 46.899 244.492 48.088 247.022 48.245 C 243.133 48.128 239.517 46.764 236.173 44.152 C 232.479 41.345 230.629 38.051 230.629 34.271 L 230.629 6.673 C 229.96 3.904 228.763 2.23 227.036 1.644 L 240.77 1.644 C 238.476 2.189 237.331 3.924 237.331 6.847 L 237.331 20.062 C 237.331 21.854 237.818 23.142 238.792 23.923 C 238.828 24.311 241.494 24.622 246.789 24.857 C 243.285 24.973 240.679 25.578 238.966 26.668 Z M 249.712 1.644 L 265.546 1.644 L 265.603 17.39 C 265.134 13.058 263.405 9.507 260.403 6.736 C 257.718 4.278 254.152 2.581 249.712 1.644 Z M 252.459 48.42 C 257.833 47.992 263.014 42.929 268 33.227 L 268 48.42 C 267.261 47.367 266.092 46.842 264.496 46.842 C 263.365 46.842 262.039 47.105 260.52 47.629 C 259.002 48.156 256.315 48.42 252.459 48.42 Z"
     style="fill:#ffffff;fill-opacity:1"
     id="path10" />
</svg>

<svg xmlns="http://www.w3.org/2000/svg" viewBox="0 0 268 68"><path d="M44.88 14.76a29 29 0 0 1 1.8 10.05q0 4.5-1.4 8.24a24.4 24.4 0 0 1-7.41 10.52 22 22 0 0 1-11.8 5.02v6.02q0 .35-.54 2.8-1.05 4.86-1.92 11.05a409 409 0 0 0-3.22-13.8v-6.13a21 21 0 0 1-11.5-4.9Q-.02 36.27 0 24.8q0-4.79 1.58-9.34A23 23 0 0 1 6.02 7.7a17 17 0 0 1 7.24-5.26A23 23 0 0 0 6.2 8.8q-3.8 5.26-3.8 11.98 0 2.46.47 4.85a19.7 19.7 0 0 0 4.86 9.35q3.96 4.5 8.82 5.67 2.51.88 3.85.93V35.5q0-.93-.05-2.1-.42-1.94-2.23-2.22a.4.4 0 0 0-.29-.12H28.4q.4 0 .35.12-2.16.35-2.51 2.22-.18.93-.18 2.16v6.02q2.98-.65 4.1-.93 4.73-1.23 8.64-5.44a20.5 20.5 0 0 0 5.5-14.43q0-5.8-2.93-10.6a22 22 0 0 0-8-7.75q8 3.04 11.5 12.33m16.77-7.91q-.53-4.08-3.44-4.9h14.2q-4.33 1.45-3.86 5.02V37.2q0 3.21.82 5.55 3.28 6.53 9.64 6.83-8.01-.23-12.45-4.85-4.9-5.08-4.9-11.32zm39-.04q.53-4.1 3.66-4.86H89.98q4.26 1.29 3.79 4.86v31.05q0 3.11-.88 4.86-3.34 6.63-9.57 6.86 4.86-.12 8.31-1.88 1.82-.93 4.16-2.98 4.86-4.28 4.86-11.25zM146.4 45.2l-2.34-5.72q-1.98-4.9-5.32-5.96-1.17-.12-3.15-.24l-.65-.05 1-.3q3.03-.87 3.03-2.92 0-.64-.47-1.75-2.33-5.55-3.44-8.36-2.16-5.03-3.27-5.67-.87-.46-2.85 3.5-2.1 4.27-2.69 5.74l-1.98 5.08q-.4 1.05-.4 1.81 0 2.7 3.71 2.87-4.9 0-6.77 2.5a35 35 0 0 0-3.34 8.01l-.35 2.05q.36 2.22 2.63 2.63h-9.35q2.58-1.18 6.26-7.84 1.98-3.5 4.84-9.76a637 637 0 0 0 8.89-20.17l3.45-9 8.23 19.48h-.05l1.75 3.74q3.1 6.49 7.89 16.77 2.4 5.2 5.6 6.78h-13.72q3.22-.18 2.86-3.22m32.3-1.51q0 3.86 3.28 4.55H168.9q2.82-.7 3.23-4.55v-37q0-3.98-3.17-4.68h13.1q-2.42.52-3.35 4.5v13.04q0 3.74 4.93 5.31-4.93 1.06-4.93 6.26zm18.7-21.02Q205.83 11.8 214.77 0L188 24.99h.06l-.06.06h.18q6.36 2.4 11.16 5.72 11.4 7.95 12.27 19.3.17-1.7.17-3.34 0-11.04-6.19-18.1a21.5 21.5 0 0 0-8.18-5.96m41.56 4a4.3 4.3 0 0 0-1.64 3.56v4.04q0 1.75 1 7.2a13 13 0 0 0 2.04 3.2q2.85 3.34 6.65 3.57a18.2 18.2 0 0 1-10.85-4.09q-5.54-4.2-5.54-9.88V6.67q-1-4.15-3.6-5.03h13.74q-3.45.82-3.44 5.2v13.22q0 2.7 1.46 3.86.05.59 8 .94-5.25.17-7.82 1.8M249.7 1.64h15.84l.05 15.75a16.4 16.4 0 0 0-5.2-10.65q-4.02-3.69-10.69-5.1m2.75 46.78q8.06-.65 15.54-15.2v15.2q-1.1-1.58-3.5-1.58-1.7 0-3.98.79-2.27.8-8.06.79" style="fill:#fff;fill-opacity:1"/></svg>
